img/trends/plus.svg

<svg width="28" height="28" viewBox="0 0 28 28" fill="none" xmlns="http://www.w3.org/2000/svg">
<path d="M26 11H17V2C17 0.9375 16.0625 0 15 0H13C11.875 0 11 0.9375 11 2V11H2C0.875 11 0 11.9375 0 13V15C0 16.125 0.875 17 2 17H11V26C11 27.125 11.875 28 13 28H15C16.0625 28 17 27.125 17 26V17H26C27.0625 17 28 16.125 28 15V13C28 11.9375 27.0625 11 26 11Z" fill="white"/>
</svg>

<svg width="28" height="28" fill="none" xmlns="http://www.w3.org/2000/svg"><path d="M26 11h-9V2c0-1.063-.938-2-2-2h-2c-1.125 0-2 .938-2 2v9H2c-1.125 0-2 .938-2 2v2c0 1.125.875 2 2 2h9v9c0 1.125.875 2 2 2h2c1.063 0 2-.875 2-2v-9h9c1.063 0 2-.875 2-2v-2c0-1.063-.938-2-2-2z" fill="#fff"/></svg>
